X:1
T:In the Great Triumphant Morning
T:In the Great Triumphant Morning
T:Robert Emmett Winsett
T:Robert Emmett Winsett, 1908
T:Public Domain Courtesy of the Cyber Hymnal™
T:Public Domain Courtesy of the Cyber Hymnal™
C:Robert Emmett Winsett
Z:Public Domain
Z:Courtesy of the Cyber Hymnal™
%%score ( 1 2 ) ( 3 4 )
L:1/8
Q:1/4=108
M:4/4
K:Ab
V:1 treble 
V:2 treble 
V:3 bass 
V:4 bass 
V:1
 [Ec][DB] | [CA][CA][CA][CA] [DF][CE][A,C][CE] | %2
w: 1.~In the|great tri- umph- ant morn- ing, When we|
w: 2.~In the|great tri- umph- ant morn- ing, What a|
w: 3.~In the|great tri- umph- ant morn- ing, When the|
w: 4.~In the|great tri- umph- ant morn- ing, All the|
 [FA]>[FA] [FA][DF] [CA]2 [EA][EB] c4- [Ac][Ac][EB][FA] | B6 [Ac][GB] | %4
w: hear the Bride- groom cry, And the dead in Christ shall rise,|* We’ll be|
w: hap- py time ’twill be, When the dead in Christ shall rise,|* When the|
w: har- vest is com- plete, And the dead in Christ shall rise,|* We’ll be|
w: king- dom we’ll pos- sess, Then the dead in Christ shall rise,|* Reign as|
 A[EA][EA][EA] [DF][CE][A,C][CE] | [FA]>[FB] [FA][DF] [CA]2 [EA][EB] | c4- [Ec][Ec][DB][DB] | A6 |: %8
w: changed to life im- mor- tal, In the|twink- ling of an eye, And meet|Je- sus in the skies.||
w: Lord de- scends in glo- ry, Sets His|wait- ing child- ren free, And we|meet Him in the skies.||
w: crowned with life im- mor- tal, Christ and|all the loved ones meet, In the|rap- ture in the skies.||
w: kings and priests e- ter- nal, Un- der|Christ for- ev- er blest, Af- ter|meet- ing in the skies.||
"^Refrain" [Ec][Ed] | [Ae]2 [Ae][Ae] [Ae][Ec][DB][CA] | [Ec]2 [Ec][Ec] [DB][CA][CE][CF] |1 %11
w: |||
w: We shall|all rise to meet Him, We shall|all rise to greet Him, In the|
w: We shall|all rise to meet Him, We shall|all rise to greet Him, And shall|
w: |||
 [CA][EA][EA][GB] [Ac][Ac][EB][FA] | [GB]6 :|2 [GB][GB] || A6 ECD E2 |] %15
w: ||||
w: morning when the dead in Christ shall rise||||
w: have the mar- riage sup- per ~ ~|~|in the|skies (up in the skies).|
w: ||||
V:2
 x2 | x8 | x8 E E A A x4 | (GGFF G2) x2 | A x7 | x8 | EEFF x4 | (C2 DD C2) |: x2 | x8 | x8 |1 x8 | %12
 x6 :|2 x2 || A x10 |] %15
V:3
 [A,,A,][A,,A,] | [A,,E,][A,,E,][A,,E,][A,,E,] [A,,A,][A,,A,]A,A, | %2
w: ~ ~|~ ~ ~ ~ ~ ~ ~ ~|
 [D,A,]>[D,D] [D,D][D,A,] [A,,A,]2 [C,A,][E,G,]A,A,[A,E][A,E][A,E][A,E][G,E][G,D] | %3
w: ~ ~ ~ ~ ~ ~ ~ dead, the ran- somed dead, in Christ shall|
 [E,E][E,E][B,,=D][B,,D] [E,E]2 [A,E][A,_D] | [A,,A,C][A,,A,C][A,,A,C][A,,A,C] [A,,A,][A,,A,]A,A, | %5
w: rise, they all shall rise ~ ~|~ ~ ~ ~ ~ ~ ~ ~|
 [D,A,]>[D,D] [D,D][D,A,] [A,,A,]2 [C,A,][E,G,] | A,A,[F,A,][F,A,] [C,A,][C,A,][E,G,][E,G,] | %7
w: ~ ~ ~ ~ ~ 1.~And meet|Je- sus in the skies up in thte|
 A,2 F,F, E,2 |: A,[A,B,] | [A,C]2 [A,C][A,C] [A,,C][A,,A,][A,,E,][A,,E,] | %10
w: skies, heav’n- ly skies.|||
 [A,,A,]2 [A,,A,][A,,A,] [A,,E,][A,,E,][A,,A,][A,,A,] |1 %11
w: |
 [A,,A,][A,,C][C,C][E,C] [A,E][A,E][G,E][F,=D] | [E,E]2 [E,E][E,E] [E,E]2 :|2 [E,D][E,D] || %14
w: |||
 CCA,B, C2 x5 |] %15
w: |
V:4
 x2 | x6 A,A, | x8 A,A, x6 | x8 | x6 A,A, | x8 | A,A, x6 | A,,6 |: A, x | x8 | x8 |1 x8 | x6 :|2 %13
 x2 || A,,6 x5 |] %15

